!!!!SEGMENT: Ano3011-Vray_Dieu_damours.krn
!!!id: Ano3011
!!!AGN: Chanson
!!!voices: 5
!!!COM: Anonymous
!!!OTL: Vray Dieu d'amours
**kern	**kern	**kern	**kern	**kern
*part5	*part4	*part3	*part2	*part1
*staff5	*staff4	*staff3	*staff2	*staff1
*I"Bassus	*I"Tenor II	*I"Tenor I	*I"Altus	*I"Superius
*I'B	*I'T. II	*I'T. I	*I'A	*I'S
*clefF4	*clefGv2	*clefGv2	*clefGv2	*clefG2
*k[b-]	*k[b-]	*k[b-]	*k[b-]	*k[b-]
*F:	*F:	*F:	*F:	*F:
*M2/1	*M2/1	*M2/1	*M2/1	*M2/1
*met(C|)	*met(C|)	*met(C|)	*met(C|)	*met(C|)
0r	1C	0c	0r	1r
.	[1F	.	.	1cc
=1	=1	=1	=1	=1
1r	2F]	2d	1r	2a
.	2G	2d	.	2b-y
[1F	2.A	1c	[1f	4cc
.	.	.	.	4b-y
.	.	.	.	4a
.	4B-y	.	.	4g
=2	=2	=2	=2	=2
1F]	1c	1A	1f]	2a
.	.	.	.	2cc
2G	2r	2B-y	2d	2b-y
2G	2B-y	2B-y	2e	2g
=3	=3	=3	=3	=3
[0F	2A	4c	1.f	[0a
.	.	4B-y	.	.
.	2F	4A	.	.
.	.	4G	.	.
.	2.c	1A	.	.
.	.	.	4e	.
.	4B-y	.	4d	.
=4	=4	=4	=4	=4
0F]	4A	2r	2c	1a]
.	4G	.	.	.
.	4F	2A	2f	.
.	4E	.	.	.
.	1D	2d	2f	2r
.	.	2d	2f	2dd
=5	=5	=5	=5	=5
0r	1G	2B-y	2d	2dd
.	.	2G	2d	2dd
.	2G	2.d	2.g	2b-y
.	2G	.	.	2g
.	.	4c	8fL	.
.	.	.	8eJ	.
=6	=6	=6	=6	=6
2r	2G	2B-y	1d	2.dd
2D	2A	2A	.	.
.	.	.	.	4cc
2G	2B-y	4G	1d	4b-y
.	.	4A	.	4a
2G	[2d	4B-y	.	2g
.	.	4c	.	.
=7	=7	=7	=7	=7
1F	2d]	1A	2r	4a
.	.	.	.	4g
.	2c	.	2a	4f
.	.	.	.	4e
1G	2.B-y	2r	2g	2d
.	.	2d	2g	[2b-y
.	8AL	.	.	.
.	8B-yJ	.	.	.
=8	=8	=8	=8	=8
2A	1c	2c	2e	2b-]
2F	.	2A	2f	1a
2.G	2r	2B-y	2.d	.
.	2G	2B-y	.	2g
4F	.	.	4e	.
=9	=9	=9	=9	=9
2D	2F	2.A	1f	1a
2F	2A	.	.	.
.	.	4B-y	.	.
2E	2G	2c	2r	1r
[2D	[2F	4d	2f	.
.	.	4c	.	.
=10	=10	=10	=10	=10
4D]	4F]	4B-y	2d	0r
4C	4E	4A	.	.
4BB-y	4D	1A	1f	.
4AA	4C	.	.	.
1BB-y	1D	.	.	.
.	.	2G	4e	.
.	.	.	4d	.
=11	=11	=11	=11	=11
[0AA	2E	1A	0c	1r
.	4r	.	.	.
.	4A	.	.	.
.	2A	1r	.	1a
.	2A	.	.	.
=12	=12	=12	=12	=12
1AA]	4c	0r	0r	2a
.	4B-y	.	.	.
.	4A	.	.	2a
.	4G	.	.	.
2r	2F	.	.	4cc
.	.	.	.	4b-y
2D	[2A	.	.	4a
.	.	.	.	4g
=13	=13	=13	=13	=13
2D	4A]	1r	2r	4f
.	4G	.	.	4e
2D	4F	.	2d	2.a
.	4E	.	.	.
4F	1D	2r	2d	.
4E	.	.	.	4g
4D	.	2d	2d	4f
4C	.	.	.	4e
=14	=14	=14	=14	=14
0BB-y	2r	2d	4f	2d
.	.	.	4e	.
.	2B-y	2d	4d	2dd
.	.	.	4c	.
.	2B-y	4f	2B-y	2dd
.	.	4e	.	.
.	2B-y	4d	[2d	2dd
.	.	4c	.	.
=15	=15	=15	=15	=15
2r	2.B-y	2B-y	4d]	4ff
.	.	.	4c	4ee
2B-y	.	2.d	4B-y	4dd
.	4c	.	4A	4cc
2B-y	2d	.	1G	4b-y
.	.	4c	.	4a
2B-y	2d	4B-y	.	4g
.	.	4A	.	4f
=16	=16	=16	=16	=16
4B-y	2d	2G	2r	2g
4A	.	.	.	.
4G	2B-y	2d	1g	2b-y
4F	.	.	.	.
2G	2G	[1d	.	2b-y
2D	2A	.	[2f	[2a
=17	=17	=17	=17	=17
2F	2D	2d]	2f]	2a]
2G	2r	4c	2e	1g
.	.	4B-y	.	.
2D	2r	2A	2d	.
2D	2A	2A	2d	2f#i
=18	=18	=18	=18	=18
1G	2B-y	1G	1d	0g
.	2B-y	.	.	.
1E	2G	2r	1r	.
.	[2c	2G	.	.
=19	=19	=19	=19	=19
2F	2c]	2A	1r	1r
2G	2B-y	2B-y	.	.
1C	2A	1c	1e	2r
.	2G	.	.	2g
=20	=20	=20	=20	=20
0r	2r	1r	2f	2a
.	2G	.	2g	2b-y
.	2A	2r	2c	2.cc
.	2A	2c	2e	.
.	.	.	.	4b-y
=21	=21	=21	=21	=21
0r	2F	2c	2f	4a
.	.	.	.	4g
.	2D	2d	2f	2a
.	2.G	2B-y	2d	2r
.	.	2G	2g	2dd
.	4A	.	.	.
=22	=22	=22	=22	=22
2r	4B-y	1d	2.f	2dd
.	4A	.	.	.
2G	4B-y	.	.	2dd
.	4c	.	8eL	.
.	.	.	8dJ	.
1G	1d	4d	[1g	2b-y
.	.	4c	.	.
.	.	4B-y	.	2g
.	.	4A	.	.
=23	=23	=23	=23	=23
2r	1G	2B-y	1g]	2.dd
2G	.	4G	.	.
.	.	4A	.	4cc
2G	1r	4B-y	2r	4b-y
.	.	4c	.	4a
2G	.	[2d	2g	[2b-y
=24	=24	=24	=24	=24
2A	1r	4d]	2e	2b-]
.	.	4c	.	.
2F	.	4B-y	2f	1a
.	.	4A	.	.
1G	2r	1B-y	2d	.
.	2G	.	2d	2g
=25	=25	=25	=25	=25
4D	2d	1A	1f	1a
4E	.	.	.	.
4F	2d	.	.	.
4G	.	.	.	.
4A	4c	1r	2e	1r
4G	4B-y	.	.	.
4B-y	4d	.	4g	.
4A	4c	.	4f	.
=26	=26	=26	=26	=26
4G	4B-y	0r	4e	0r
4F	4A	.	4d	.
4E	1A	.	1d	.
4D	.	.	.	.
1E	.	.	.	.
.	2G	.	2c#i	.
=27	=27	=27	=27	=27
1D	2A	1r	1d	2r
.	4r	.	.	2dd
.	4F	.	.	.
2r	2G	2r	2r	2dd
2D	2A	2d	2f	2dd
=28	=28	=28	=28	=28
2D	2F	2d	2f	4ff
.	.	.	.	4ee
2BB-y	2.B-y	2d	2f	4dd
.	.	.	.	4cc
2.B-y	.	4d	1g	4b-y
.	4c	4c	.	4a
.	[2d	4B-y	.	4g
4A	.	4A	.	4f
=29	=29	=29	=29	=29
4B-y	4d]	2G	2r	2g
4A	4c	.	.	.
4G	4B-y	2d	1g	2b-y
4F	4A	.	.	.
2G	2G	2d	.	2b-y
2D	[2A	2d	[2f	[2a
=30	=30	=30	=30	=30
2F	2A]	2c	2f]	4a]
.	.	.	.	4g
2G	2d	2B-y	2d	1g
2C	2c	1A	2e	.
2D	2A	.	2d	2f#i
=31	=31	=31	=31	=31
1G	2.B-y	0G	1d	0g
.	4A	.	.	.
1C	2G	.	1e	.
.	[2c	.	.	.
=32	=32	=32	=32	=32
0C	2c]	1r	0e	0g
.	4B-y	.	.	.
.	4A	.	.	.
.	1G	1c	.	.
=33	=33	=33	=33	=33
2r	1F	0c	0r	0a
2F	.	.	.	.
2F	2r	.	.	.
2A	2F	.	.	.
=34	=34	=34	=34	=34
2G	2B-y	1r	2r	0r
2F	2A	.	2f	.
1E	2B-y	2r	[1g	.
.	2c	2G	.	.
=35	=35	=35	=35	=35
1D	1d	2B-y	2g]	1r
.	.	2A	2f	.
[1G	1d	2.B-y	2d	1g
.	.	.	2G	.
.	.	4c	.	.
=36	=36	=36	=36	=36
1G]	0r	1d	1g	1.b-y
2r	.	1d	1f	.
2D	.	.	.	2a
=37	=37	=37	=37	=37
4G	0r	2r	2r	4b-y
4A	.	.	.	4cc
4B-y	.	2d	2f	4dd
4c	.	.	.	4ee
2d	.	2d	2f	2ff
2c	.	2e	2g	[2ee
=38	=38	=38	=38	=38
2B-y	1r	2f	2b-y	2ee]
2G	.	2g	2b-y	1dd
1A	2r	1e	1a	.
.	[2A	.	.	2cc#i
=39	=39	=39	=39	=39
1D	2A]	1d	2f	0dd
.	2F	.	2d	.
2r	2G	1r	2d	.
2D	[2A	.	2d	.
=40	=40	=40	=40	=40
2D	4A]	1r	1.f	2r
.	4G	.	.	.
2D	4F	.	.	2dd
.	4E	.	.	.
4F	2D	2r	.	2dd
4E	.	.	.	.
4D	2A	2d	2f	2dd
4C	.	.	.	.
=41	=41	=41	=41	=41
2BB-y	2B-y	2d	2f	2.dd
2B-y	2B-y	2d	2f	.
.	.	.	.	4cc
2B-y	2G	4d	1g	4b-y
.	.	4c	.	4a
2B-y	2d	4B-y	.	4g
.	.	4A	.	4f
=42	=42	=42	=42	=42
4B-y	2d	2G	2r	2g
4A	.	.	.	.
4G	2B-y	2d	1g	2b-y
4F	.	.	.	.
2G	2G	2d	.	2b-y
2D	2A	2d	[2f	[2a
=43	=43	=43	=43	=43
2F	2D	2d	2f]	2a]
2G	2r	4c	2.d	1g
.	.	4B-y	.	.
2C	2r	2A	.	.
.	.	.	4c	.
2D	2d	2A	2A	2f#i
=44	=44	=44	=44	=44
1G	2d	1G	1B-y	2g
.	2d	.	.	4r
.	.	.	.	4dd
1D	4f	1d	2F	2dd
.	4e	.	.	.
.	4d	.	2f	2dd
.	4c	.	.	.
=45	=45	=45	=45	=45
2D	2.B-y	2d	2f	4ff
.	.	.	.	4ee
2BB-y	.	2d	2f	4dd
.	4A	.	.	4cc
2.B-y	2G	4d	1g	4b-y
.	.	4c	.	4a
.	[2d	4B-y	.	4g
4A	.	4A	.	4f
=46	=46	=46	=46	=46
4B-y	4d]	2G	2r	2g
4A	4c	.	.	.
4G	4B-y	2d	1g	2b-y
4F	4A	.	.	.
2G	2G	2d	.	2b-y
2D	[2A	2d	[2f	[2a
=47	=47	=47	=47	=47
2F	2A]	2c	2f]	2a]
2G	2d	2B-y	2d	1g
2C	2c	1A	2e	.
2D	2A	.	2d	2f#i
=48	=48	=48	=48	=48
1G	1B-y	[0Gl	1d	[0gl
1C	2r	.	1c	.
.	2G	.	.	.
=49	=49	=49	=49	=49
2C	2.c	0G_	2e	0g_
2C	.	.	2e	.
.	4c	.	.	.
2C	2c	.	2e	.
2C	2c	.	2e	.
=50	=50	=50	=50	=50
00Gl	00B-yl	00G]	00dl	00g]
==	==	==	==	==
*-	*-	*-	*-	*-
!!!system-decoration: [*]
!!!RDF**kern: i = editorial accidental
!!!RDF**kern: l = terminal long
!!!ENC: Benjamin Ory
!!!END: 2024/5/21
!!!EED: Benjamin Ory
!!!EEV: 2024/05/21
!!!YEC: Copyright 2024 Benjamin Ory, All Rights Reserved
!!!ONB: Translated from MusicXML on 2024/05/21